**kern	**kern
*part1	*part1
*staff2	*staff1
*I"Piano	*
*clefF4	*clefG2
*k[b-e-]	*k[b-e-]
=1	=1
2.BBB- 2.BB-	4r
.	4F 4B- 4d
.	4F 4B- 4d
=	=
2CC 2C	4r
.	4F 4A 4e-
4CC#X 4C#X	4G 4B- 4en
=	=
*	*^
2.DD 2.D	2.f	4r
.	.	4F 4B- 4d
.	.	4F 4B- 4d
=	=	=
2.DD 2.D	2.b-	4r
.	.	4d 4f 4a-X
.	.	4d 4f 4a-
=	=	=
2.EE- 2.E-	2.g	4r
.	.	4B- 4e-
.	.	4B- 4e-
=	=	=
2.EE- 2.E-	2.g	4r
.	.	4B- 4e-
.	.	4B- 4e-
=	=	=
2.DD 2.D	2.f	4r
.	.	4F 4B- 4d
.	.	4F 4B- 4d
=	=	=
2DD 2D	2.f	4r
.	.	4F 4B- 4d
4FF 4F	.	4B- 4d 4a-X 4b-
*	*v	*v
=	=
*-	*-
!!!system-decoration: {(s1,s2)}
